X:1
T:Title
%%score ( 1 2 3 ) { 4 | 5 }
L:1/8
Q:1/4=115
M:4/4
K:C
V:1 treble nm="Grand Piano, Staff 1"
V:2 treble 
V:3 treble 
V:4 bass nm="Choir Pad, Da Jesus an des Kreuzes"
V:5 bass 
V:1
 [EB]4 [Ec]2 [EB]2 | [FA]2 [GB]2 [Fd]2 [Ec]2 | [EB]6 [EB]2 | [Ec]2 [GB]2 [Gc]2 [FA]2 | %4
w: By~German~melody,~circa~1400 * *||||
 [EA]2 [DF]2 [^CE]4 | z2 [A,D]2 [CE]2 [CA]2 | [CG]2 [DG]2 E2 z B, | C6 [Ec]2 | %8
w: ||||
 [DB]2 [CA]2 [DG]2 [EG]2 | [EA]2 [DF]2 [^CE]4 | z2 [A,D]2 [DF]2 [EG]2 | [FA]2 [FA]2 [EG]2 [DF]2 | %12
w: ||||
 [B,E]8 |] %13
w: |
V:2
 x8 | x8 | x8 | x8 | x8 | x8 | z4 z2 D2 | x8 | x8 | x8 | x8 | x8 | x8 |] %13
V:3
 x8 | x8 | x8 | x8 | x8 | x8 | z4 C4 | x8 | x8 | x8 | x8 | x8 | x8 |] %13
V:4
 ^G,4 A,2 B,2 | C2 G,2 A,2 A,2 | ^G,6 G,2 | A,2 D2 E2 D2 | A,2 A,2 A,4 | z2 F,2 G,2 F,2 | %6
 G,2 G,2 G,4 | E,6 G,2 | G,2 E,2 G,2 B,2 | A,2 A,2 A,4 | z2 F,2 A,2[K:treble] C2 | C2 C2 C2 A,2 | %12
 ^G,8 |] %13
V:5
 E,4 z2 G,2 | F,2 E,2 D,2 A,,2 | E,6 E,2 | z2 G,2 C,2 D,2 | ^C,2 D,2 A,,4 | z2 D,2 C,2 z2 | %6
 E,2 B,,2 C,2 G,,2 | C,6 C,2 | G,,2 A,,2 B,,2 E,2 | ^C,2 D,2 A,,4 | z2 D,2 D,2 C,2 | %11
 F,,2 A,,2 C,2 D,2 | E,8 |] %13

